logo/aws-codepipeline.svg

<?xml version="1.0" encoding="UTF-8"?>
<svg width="256px" height="256px" viewBox="0 0 256 256" version="1.1" xmlns="http://www.w3.org/2000/svg" xmlns:xlink="http://www.w3.org/1999/xlink" preserveAspectRatio="xMidYMid">
    <title>AWS CodePipeline</title>
    <defs>
        <linearGradient x1="0%" y1="100%" x2="100%" y2="0%" id="linearGradient-1">
            <stop stop-color="#2E27AD" offset="0%"></stop>
            <stop stop-color="#527FFF" offset="100%"></stop>
        </linearGradient>
    </defs>
    <g>
        <rect fill="url(#linearGradient-1)" x="0" y="0" width="256" height="256"></rect>
        <path d="M96,99.2 L112,99.2 L112,92.8 L96,92.8 L96,99.2 Z M117.3344,195.7312 L111.4144,193.3024 L135.7088,134.032 L141.6288,136.4608 L117.3344,195.7312 Z M145.8272,178.496 L163.4176,163.0656 L145.84,147.8304 L150.0352,142.992 L170.384,160.6336 C171.0816,161.2384 171.4848,162.1184 171.488038,163.0432 C171.4912,163.968 171.0944,164.848 170.3968,165.4592 L150.048,183.3088 L145.8272,178.496 Z M81.6286482,163.3536 C81.6224,162.4288 82.016,161.5488 82.7104,160.9376 L102.9888,143.0112 L107.2256,147.808 L89.6928,163.3056 L107.1296,178.336 L102.9472,183.184 L82.736,165.7568 C82.0384,165.1552 81.6352,164.2784 81.6286482,163.3536 L81.6286482,163.3536 Z M200.112,112 L59.088,112 C52.976,112 48,107.0272 48,100.9152 L48,99.2 L86.4,99.2 L86.4,92.8 L48,92.8 L48,59.0848 C48,52.9728 52.976,48 59.088,48 L200.112,48 C206.224,48 211.2,52.9728 211.2,59.0848 L211.2,92.8 L121.6,92.8 L121.6,99.2 L211.2,99.2 L211.2,100.9152 C211.2,107.0272 206.224,112 200.112,112 L200.112,112 Z M70.4,211.2 L185.6,211.2 L185.6,118.4 L70.4,118.4 L70.4,211.2 Z M200.112,41.6 L59.088,41.6 C49.4432,41.6 41.6,49.4432 41.6,59.0848 L41.6,100.9152 C41.6,110.5568 49.4432,118.4 59.088,118.4 L64,118.4 L64,214.4 C64,216.1664 65.4304,217.6 67.2,217.6 L188.8,217.6 C190.5696,217.6 192,216.1664 192,214.4 L192,118.4 L200.112,118.4 C209.7568,118.4 217.6,110.5568 217.6,100.9152 L217.6,59.0848 C217.6,49.4432 209.7568,41.6 200.112,41.6 L200.112,41.6 Z" fill="#FFFFFF"></path>
    </g>
</svg>

<svg viewBox="0 0 256 256" xmlns="http://www.w3.org/2000/svg"><defs><linearGradient id="a" x1="0%" x2="100%" y1="100%" y2="0%"><stop offset="0%" stop-color="#2E27AD"/><stop offset="100%" stop-color="#527FFF"/></linearGradient></defs><path fill="url(#a)" d="M0 0h256v256H0Z"/><path fill="#FFF" d="M96 99.2h16v-6.4H96v6.4Zm21.33 96.53l-5.92-2.43 24.29-59.28 5.92 2.42 -24.3 59.27Zm28.49-17.24l17.59-15.44 -17.58-15.24 4.19-4.84 20.34 17.64c.69.6 1.1 1.48 1.1 2.4 0 .92-.4 1.8-1.1 2.41l-20.35 17.84 -4.23-4.82Zm-64.2-15.15c-.01-.93.38-1.81 1.08-2.42l20.27-17.93 4.23 4.79 -17.54 15.49 17.43 15.03 -4.19 4.84 -20.22-17.43c-.7-.61-1.11-1.48-1.11-2.41v0Zm118.48-51.36H59.07c-6.12 0-11.09-4.98-11.09-11.09v-1.72h38.4v-6.4h-38.4V59.05c0-6.12 4.97-11.09 11.08-11.09H200.09c6.11 0 11.08 4.97 11.08 11.08v33.71h-89.6v6.4h89.6v1.71c0 6.11-4.98 11.08-11.09 11.08v0Zm-129.712 99.2h115.2v-92.8H70.38v92.8ZM200.1 41.58H59.07c-9.65 0-17.488 7.84-17.488 17.48v41.83c0 9.64 7.84 17.48 17.488 17.48h4.91v96c0 1.76 1.43 3.2 3.2 3.2h121.6c1.76 0 3.2-1.44 3.2-3.2v-96h8.11c9.64 0 17.488-7.85 17.488-17.49V59.04c0-9.65-7.85-17.49-17.488-17.49v0Z"/></svg>
